X: 0
T: Evergreen
Z: Anonymous
Z: Public Domain
Z: Courtesy of the Cyber Hymnal (http://www.cyberhymnal.org)
L: 1/4
M: 4/4
V: P1 name="Staff 1"
%%MIDI program 1 0
V: P2 name="Staff 2"
%%MIDI program 2 91
V: P3 name="Staff 2-2"
%%MIDI program 3 91
K: G
[V: P1]  [Dd] [G/B/][F/A/] G [GB] | [FA] D [D2G2] | [Dd] [G/B/][F/A/] G [GB] | [FA] D [D2G2] | [GB] [AB] [GB] [E/A/][E/B/] | [Ec] [Ec] [Dc] [G/B/][A/c/] | [Bd] [Fd] [Gd] [Ad] | [Gd] [G^c] [Fd] [DB] | [Dd] [GA] [FA] [EA] | [^D3/B3/] [F/A/] [EG] [=FG] | [Ee] E [DF] [DG] | [D3/A3/] [G/A/] [FA] [GB] | [G2c2] [FA] [GB] | [G2c2] [FA] [G/B/]c/ | [Fd] [EG] [E/c/]F/ [GB] | [F2A2] G2- | G2z2|]
[V: P2]  [G,B,] [G,/B,/][A,/C/] [B,D] [G,D] | D C B,2 | [G,B,] [G,/B,/][A,/C/] [B,D] [G,D] | D C B,2 | [G,D] [F,^D] [E,E] [C/E/][B,/=D/] | [A,C] [G,B,] [F,A,] D/[C/D/] | [B,D] [A,C] [G,B,] [F,A,] | [E,B,] A, A, G, | [F,A,] [E,^C] D A, | F,3/ B,/ [E,B,] B, | C [C/E/][B,/D/] [A,C] [G,B,] | [F,3/A,3/] [E,/^C/] D [G,D] | E2 D [G,D] | E2 D [G,D] | D [E,B,] E D | D2 B,2- | B,2z2|]
[V: P3]  z4 | D, D, G,,2 | z4 | D, D, G,,2 | z4 | z4 | z4 |z2 D,z |z2 D, C, | B,,3/ ^D,/z =D, | C,z3 |z2 D,z | C,2 D,z | C,2 D,z | D,z A,, B,,/C,/ | D,2 G,,2- | G,,2z2|]

